images/icons.svg/instagram.svg

<svg width="40" height="40" viewBox="0 0 40 40" fill="none" xmlns="http://www.w3.org/2000/svg">
<g id="Ellipse">
<path id="Ellipse_2" d="M40 20C40 25.5228 37.7614 30.5228 34.1421 34.1421C30.5228 37.7614 25.5228 40 20 40C14.4772 40 9.47715 37.7614 5.85786 34.1421C2.23858 30.5228 0 25.5228 0 20C0 14.4772 2.23858 9.47715 5.85786 5.85786C9.47715 2.23858 14.4772 0 20 0C25.5228 0 30.5228 2.23858 34.1421 5.85786C37.7614 9.47715 40 14.4772 40 20Z" fill="#4D5AE5"/>
<g id="instagram 2" clip-path="url(#clip0_431671_2298)">
<path id="Vector" d="M31.9765 15.0561C31.9203 13.7809 31.7141 12.9042 31.4187 12.1445C31.1139 11.3381 30.6451 10.6162 30.0308 10.016C29.4307 9.40652 28.704 8.93292 27.9069 8.63294C27.1429 8.33753 26.2708 8.13131 24.9955 8.07509C23.7108 8.0141 23.303 8 20.0445 8C16.7861 8 16.3782 8.0141 15.0982 8.07033C13.823 8.12655 12.9463 8.33295 12.1868 8.62817C11.3803 8.93292 10.6583 9.40176 10.0582 10.016C9.4487 10.6162 8.97528 11.3429 8.67511 12.1399C8.3797 12.9042 8.17349 13.7761 8.11726 15.0513C8.05628 16.336 8.04218 16.7439 8.04218 20.0023C8.04218 23.2608 8.05628 23.6686 8.1125 24.9486C8.16873 26.2238 8.37513 27.1005 8.67053 27.8602C8.97528 28.6666 9.4487 29.3885 10.0582 29.9887C10.6583 30.5982 11.385 31.0718 12.1821 31.3718C12.9463 31.6672 13.8183 31.8734 15.0937 31.9296C16.3734 31.986 16.7815 31.9999 20.0399 31.9999C23.2984 31.9999 23.7062 31.986 24.9862 31.9296C26.2614 31.8734 27.1381 31.6672 27.8976 31.3718C29.5105 30.7482 30.7857 29.4729 31.4093 27.8602C31.7046 27.096 31.911 26.2238 31.9672 24.9486C32.0234 23.6686 32.0375 23.2608 32.0375 20.0023C32.0375 16.7439 32.0327 16.336 31.9765 15.0561ZM29.8153 24.8549C29.7636 26.027 29.5667 26.6599 29.4027 27.0819C28.9994 28.1274 28.1696 28.9572 27.124 29.3605C26.7021 29.5246 26.0645 29.7215 24.897 29.7729C23.6311 29.8293 23.2515 29.8433 20.0493 29.8433C16.847 29.8433 16.4626 29.8293 15.2013 29.7729C14.0292 29.7215 13.3963 29.5246 12.9743 29.3605C12.454 29.1682 11.9804 28.8634 11.596 28.4649C11.1975 28.0758 10.8928 27.6069 10.7005 27.0866C10.5364 26.6647 10.3395 26.027 10.288 24.8596C10.2316 23.5937 10.2177 23.2139 10.2177 20.0117C10.2177 16.8095 10.2316 16.425 10.288 15.1639C10.3395 13.9918 10.5364 13.3589 10.7005 12.9369C10.8928 12.4165 11.1975 11.943 11.6008 11.5584C11.9898 11.1599 12.4586 10.8552 12.9791 10.6631C13.4011 10.499 14.0388 10.3021 15.2061 10.2504C16.472 10.1942 16.8518 10.1801 20.0538 10.1801C23.2608 10.1801 23.6405 10.1942 24.9018 10.2504C26.0739 10.3021 26.7068 10.499 27.1288 10.6631C27.6491 10.8552 28.1227 11.1599 28.5071 11.5584C28.9056 11.9476 29.2104 12.4165 29.4027 12.9369C29.5667 13.3589 29.7636 13.9964 29.8153 15.1639C29.8715 16.4298 29.8856 16.8095 29.8856 20.0117C29.8856 23.2139 29.8715 23.589 29.8153 24.8549Z" fill="#F4F4FD"/>
<path id="Vector_2" d="M20.0445 13.837C16.6409 13.837 13.8793 16.5984 13.8793 20.0023C13.8793 23.4062 16.6409 26.1676 20.0445 26.1676C23.4484 26.1676 26.2098 23.4062 26.2098 20.0023C26.2098 16.5984 23.4484 13.837 20.0445 13.837ZM20.0445 24.0016C17.8364 24.0016 16.0453 22.2106 16.0453 20.0023C16.0453 17.794 17.8364 16.003 20.0445 16.003C22.2529 16.003 24.0438 17.794 24.0438 20.0023C24.0438 22.2106 22.2529 24.0016 20.0445 24.0016Z" fill="#F4F4FD"/>
<path id="Vector_3" d="M27.893 13.5934C27.893 14.3882 27.2486 15.0327 26.4535 15.0327C25.6587 15.0327 25.0142 14.3882 25.0142 13.5934C25.0142 12.7983 25.6587 12.1541 26.4535 12.1541C27.2486 12.1541 27.893 12.7983 27.893 13.5934Z" fill="#F4F4FD"/>
</g>
</g>
<defs>
<clipPath id="clip0_431671_2298">
<rect width="24" height="24" fill="white" transform="translate(8 8)"/>
</clipPath>
</defs>
</svg>

<svg xmlns="http://www.w3.org/2000/svg" width="40" height="40" fill="none"><path fill="#4D5AE5" d="M40 20a19.937 19.937 0 0 1-5.858 14.142A19.937 19.937 0 0 1 20 40a19.937 19.937 0 0 1-14.142-5.858A19.937 19.937 0 0 1 0 20 19.938 19.938 0 0 1 5.858 5.858 19.938 19.938 0 0 1 20 0a19.937 19.937 0 0 1 14.142 5.858A19.937 19.937 0 0 1 40 20Z"/><g fill="#F4F4FD" clip-path="url(#a)"><path d="M31.977 15.056c-.057-1.275-.263-2.152-.558-2.911a5.857 5.857 0 0 0-1.388-2.129 5.906 5.906 0 0 0-2.124-1.383c-.764-.295-1.636-.502-2.912-.558-1.284-.06-1.692-.075-4.95-.075-3.259 0-3.667.014-4.947.07-1.275.057-2.152.263-2.911.558a5.856 5.856 0 0 0-2.129 1.388 5.91 5.91 0 0 0-1.383 2.124c-.295.764-.502 1.636-.558 2.911-.06 1.285-.075 1.693-.075 4.951 0 3.259.014 3.667.07 4.947.057 1.275.263 2.151.559 2.911a5.918 5.918 0 0 0 1.387 2.129c.6.61 1.327 1.083 2.124 1.383.764.295 1.636.501 2.912.558 1.28.056 1.688.07 4.946.07s3.666-.014 4.946-.07c1.275-.057 2.152-.263 2.912-.558a6.139 6.139 0 0 0 3.511-3.512c.296-.764.502-1.636.558-2.911.056-1.28.07-1.688.07-4.947 0-3.258-.004-3.666-.06-4.946Zm-2.162 9.799c-.051 1.172-.248 1.805-.412 2.227a3.981 3.981 0 0 1-2.279 2.278c-.422.165-1.06.361-2.227.413-1.266.056-1.645.07-4.848.07-3.202 0-3.586-.014-4.848-.07-1.172-.052-1.805-.248-2.227-.413a3.693 3.693 0 0 1-1.378-.895 3.73 3.73 0 0 1-.896-1.378c-.164-.422-.36-1.06-.412-2.227-.056-1.266-.07-1.646-.07-4.848 0-3.203.014-3.587.07-4.848.051-1.172.248-1.805.412-2.227.193-.52.498-.994.9-1.379a3.725 3.725 0 0 1 1.38-.895c.421-.164 1.059-.36 2.226-.413 1.266-.056 1.646-.07 4.848-.07 3.207 0 3.587.014 4.848.07 1.172.052 1.805.249 2.227.413.52.192.994.497 1.378.895.399.39.703.858.896 1.379.164.422.36 1.06.412 2.227.056 1.266.07 1.646.07 4.848s-.014 3.577-.07 4.843Z"/><path d="M20.044 13.837a6.167 6.167 0 0 0-6.165 6.165 6.167 6.167 0 0 0 6.165 6.166 6.167 6.167 0 0 0 6.166-6.166 6.167 6.167 0 0 0-6.166-6.165Zm0 10.165a4 4 0 1 1 .002-8 4 4 0 0 1-.002 8ZM27.893 13.593a1.44 1.44 0 1 1-2.879 0 1.44 1.44 0 0 1 2.879 0Z"/></g><defs><clipPath id="a"><path fill="#fff" d="M8 8h24v24H8z"/></clipPath></defs></svg>
